T: Gan Ainm
M: 2/4
L: 1/8
K: Gmaj
~  | eg ge | ~ or ~  | eg- ge | ~ & while I'm revisiting the C-part ~ 8-)dg ga | b2 ag | eg- ge | dB B/c/B/c/ | dg g/f/g/a/ | bc'/b/ ag |[1 e^d ef | g3 :|[2 e/f/g/e/ dB | G2 G |]
